X: 20652
T: Matthew Briggs
N: aka Drummond Castle
%R: jig, march
B: James Oswald "The Caledonian Pocket Companion" v.2 p.65 #2
Z: 2019 John Chambers <jc:trillian.mit.edu>
M: 6/8
L: 1/8
K: Am
"_Brisk" E |\
ABA a3 | g>fe g3 | c3 edc | B2g dBG |\
ABA a2a | g^fe gag | e3 deg | dBG A2 :|
|: B |\
c2c egc | d2d egB | c2c edc | Bge dBG |\
cdc edc | deg a2g | e3 deg | dBG A2 :|


